Sources/FrostedUI/Resources/Icons.xcassets/bold12.imageset/bold-12.svg

<svg width="12" height="12" viewBox="0 0 12 12" fill="none" xmlns="http://www.w3.org/2000/svg" data-fui-icon="true">
  <path
    d="M6.62598 1.125C8.14473 1.125 9.37598 2.35621 9.37598 3.875V4C9.37598 4.67406 9.13204 5.29027 8.72949 5.76855C9.42307 6.26781 9.87598 7.08019 9.87598 8V8.125C9.87598 9.64376 8.64474 10.875 7.12598 10.875H3.37109C2.68074 10.875 2.12109 10.3154 2.12109 9.625V2.375C2.12109 1.68465 2.68073 1.125 3.37109 1.125H6.62598ZM3.62109 9.375H7.12598C7.81631 9.375 8.37598 8.81534 8.37598 8.125V8C8.37598 7.30966 7.81631 6.75 7.12598 6.75H3.62109V9.375ZM3.62109 5.25H6.62598C7.31631 5.25 7.87598 4.69034 7.87598 4V3.875C7.87598 3.18465 7.31632 2.625 6.62598 2.625H3.62109V5.25Z"
    fill="currentColor"
  />
</svg>

<svg xmlns="http://www.w3.org/2000/svg" width="12" height="12" fill="none" data-fui-icon="true" viewBox="0 0 12 12"><path fill="currentColor" d="M6.626 1.125a2.75 2.75 0 0 1 2.75 2.75V4c0 .674-.244 1.29-.647 1.769A2.74 2.74 0 0 1 9.876 8v.125a2.75 2.75 0 0 1-2.75 2.75H3.371c-.69 0-1.25-.56-1.25-1.25v-7.25c0-.69.56-1.25 1.25-1.25zm-3.005 8.25h3.505c.69 0 1.25-.56 1.25-1.25V8c0-.69-.56-1.25-1.25-1.25H3.621zm0-4.125h3.005c.69 0 1.25-.56 1.25-1.25v-.125c0-.69-.56-1.25-1.25-1.25H3.621z"/></svg>
